X:1
T:Santa Rosa, LMD
T:Santa Rosa, LMD
T:William Speer Nickle, 1889
T:Public Domain Courtesy of the Cyber Hymnal™
C:William Speer Nickle, 1889
Z:Public Domain
Z:Courtesy of the Cyber Hymnal™
%%score 1 2
L:1/8
Q:1/4=93
M:3/4
K:Ab
V:1 treble 
V:2 bass 
V:1
 [CE] | [CE][CA] [CA]3 [CB] | [DA]>[DG] [DG]3 [DE] | [DE][DB] [DB]3 [Ec] | [DB]>[CA] [CA]3 [CE] | %5
 [CE][CA] [Ec]3 [_Ge] | [Fe]>[Fd] [Fd]3 [Fd] | [Ec][Ed] [Ec]3 [DB] | [DB]>[CA] [CA]3 [CE] | %9
 [CE]>[CA] [CA]3 [CB] | [DA]>[DG] [DG]3 [DE] | [DE][DB] [DB]3 [Ec] | [DB]>[CA] [CA]3 [CE] | %13
 [CE][CA] [Ec]3 [_Ge] | [Fe]>[Fd] [Fd]3 [Fd] | [Ec][Ed] [Ec]3 [DB] | [DB]>[CA] [CA]3 |] %17
V:2
 [A,,A,] | [A,,A,][A,,E,] [A,,E,]3 [A,,A,] | [E,B,]>[E,B,] [E,B,]3 [E,G,] | %3
 [E,G,][E,G,] [E,G,]3 [E,G,] | [A,,A,]>[A,,A,] [A,,A,]3 [A,,A,] | [A,,A,][A,,E,] [A,,A,]3 [C,A,] | %6
 [D,A,]>[D,A,] [D,A,]3 [D,A,] | [E,A,][E,B,] [E,A,]3 [E,G,] | [A,,A,]>[A,,E,] [A,,E,]3 [A,,A,] | %9
 [A,,A,]>[A,,E,] [A,,E,]3 [A,,A,] | [E,B,]>[E,B,] [E,B,]3 [E,G,] | [E,G,][E,G,] [E,G,]3 [E,G,] | %12
 [A,,A,]>[A,,E,] [A,,E,]3 [A,,A,] | [A,,A,][A,,E,] [A,,A,]3 [C,A,] | [D,A,]>[D,A,] [D,A,]3 [D,A,] | %15
 [E,A,][E,B,] [E,A,]3 [E,G,] | [A,,A,]>[A,,E,] [A,,E,]3 |] %17

